icons/save-17.svg

<svg width="16" height="17" viewBox="0 0 16 17" fill="none" xmlns="http://www.w3.org/2000/svg">
<path fill-rule="evenodd" clip-rule="evenodd" d="M3.8 2.16638C3.32261 2.16638 2.86477 2.35602 2.52721 2.69359C2.18964 3.03116 2 3.48899 2 3.96638V12.3664C2 12.8438 2.18964 13.3016 2.52721 13.6392C2.86477 13.9767 3.32261 14.1664 3.8 14.1664H12.2C12.6774 14.1664 13.1352 13.9767 13.4728 13.6392C13.8104 13.3016 14 12.8438 14 12.3664V5.76638C14 5.60725 13.9368 5.45464 13.8243 5.34212L10.8243 2.34212C10.7117 2.2296 10.5591 2.16638 10.4 2.16638H3.8ZM3.8 3.36638C3.64087 3.36638 3.48826 3.4296 3.37574 3.54212C3.26321 3.65464 3.2 3.80725 3.2 3.96638V12.3664C3.2 12.5255 3.26321 12.6781 3.37574 12.7906C3.48826 12.9032 3.64087 12.9664 3.8 12.9664H4.3999V8.76638C4.3999 8.43501 4.66853 8.16638 4.9999 8.16638H10.9999C11.3313 8.16638 11.5999 8.43501 11.5999 8.76638V12.9664H12.2C12.3591 12.9664 12.5117 12.9032 12.6243 12.7906C12.7368 12.6781 12.8 12.5255 12.8 12.3664V6.01491L10.1515 3.36638H5.5999V5.16638H9.7999C10.1313 5.16638 10.3999 5.43501 10.3999 5.76638C10.3999 6.09775 10.1313 6.36638 9.7999 6.36638H4.9999C4.66853 6.36638 4.3999 6.09775 4.3999 5.76638V3.36638H3.8ZM5.5999 9.36638V12.9664H10.3999V9.36638H5.5999Z" fill="#272431"/>
</svg>

<svg xmlns="http://www.w3.org/2000/svg" width="16" height="17" viewBox="0 0 16 17"><path fill-rule="evenodd" d="M3.8 2.166a1.8 1.8 0 00-1.8 1.8v8.4a1.8 1.8 0 001.8 1.8h8.4a1.8 1.8 0 001.8-1.8v-6.6a.6.6 0 00-.176-.424l-3-3a.6.6 0 00-.424-.176H3.8zm0 1.2a.6.6 0 00-.6.6v8.4a.6.6 0 00.6.6h.6v-4.2a.6.6 0 01.6-.6h6a.6.6 0 01.6.6v4.2h.6a.6.6 0 00.6-.6V6.015l-2.649-2.649H5.6v1.8h4.2a.6.6 0 110 1.2H5a.6.6 0 01-.6-.6v-2.4h-.6zm1.8 6v3.6h4.8v-3.6H5.6z"/></svg>
